src/icons/r2-sql.svg

<svg width="64" height="64" viewBox="0 0 64 64" fill="none" xmlns="http://www.w3.org/2000/svg">
<rect x="12.7373" y="37.5132" width="6.94427" height="6.94427" transform="rotate(-45 12.7373 37.5132)" fill="#FF6633"/>
<circle cx="31.7167" cy="37.0268" r="4.38813" fill="#FF6633"/>
<path d="M45.3677 32.6392L50.0124 40.6841H40.7229L45.3677 32.6392Z" fill="#FF6633"/>
<path d="M51.7668 51.4599H14.8645C11.1898 51.4517 7.66794 49.9882 5.06959 47.3896C2.47124 44.7911 1.00798 41.2691 1 37.5944C1.01996 35.542 1.48344 33.5182 2.35866 31.6618C3.23389 29.8053 4.50018 28.16 6.07073 26.8386C8.69899 24.6156 12.088 23.5006 15.5228 23.7289C17.0806 19.8949 19.8594 16.6817 23.4286 14.5872C26.9977 12.4926 31.1581 11.6336 35.265 12.1432C39.3718 12.6528 43.196 14.5026 46.145 17.406C49.094 20.3095 51.0031 24.1044 51.5766 28.2028C54.4181 28.0763 57.2031 29.0239 59.3778 30.8572C61.1746 32.422 62.4529 34.4963 63.0431 36.8047C63.6333 39.1132 63.5074 41.5465 62.6821 43.7817C61.8569 46.0169 60.3713 47.9482 58.4226 49.3193C56.4739 50.6903 54.1542 51.4362 51.7717 51.458L51.7668 51.4599ZM14.6451 27.6002C12.4223 27.5936 10.2705 28.3826 8.57879 29.8245C7.44201 30.7781 6.52477 31.9661 5.88991 33.3072C5.25505 34.6483 4.91756 36.1107 4.90056 37.5944C4.90466 40.2309 5.95184 42.7588 7.81342 44.6258C9.675 46.4929 12.1997 47.5475 14.8363 47.5594H51.7658C53.8188 47.5568 55.787 46.7399 57.2385 45.2881C58.69 43.8362 59.5064 41.8678 59.5084 39.8148C59.5182 38.6846 59.2859 37.5654 58.827 36.5325C58.3682 35.4995 57.6934 34.5768 56.8482 33.8265C55.9117 33.0801 54.8209 32.5514 53.6548 32.2787C52.4887 32.0059 51.2197 31.6645 49.2694 32.152L47.8467 30.3784C47.7451 26.8482 46.3933 23.4688 44.0322 20.8425C41.6712 18.2161 38.4542 16.5134 34.9548 16.0379C31.4553 15.5624 27.9007 16.3449 24.9244 18.246C21.9481 20.1471 19.7436 23.0433 18.7037 26.4183L18.1985 28.0634L16.5047 27.764C15.8908 27.6557 15.2686 27.6009 14.6451 27.6002Z" fill="#FF6633"/>
</svg>

<svg xmlns="http://www.w3.org/2000/svg" width="64" height="64" fill="none" viewBox="0 0 64 64"><path fill="#f63" d="m12.737 37.513 4.91-4.91 4.91 4.91-4.91 4.91z"/><circle cx="31.717" cy="37.027" r="4.388" fill="#f63"/><path fill="#f63" d="m45.368 32.64 4.644 8.044h-9.29z"/><path fill="#f63" d="M51.767 51.46H14.865A13.895 13.895 0 0 1 1 37.594 14.24 14.24 0 0 1 6.07 26.84a13.27 13.27 0 0 1 9.453-3.11 18.809 18.809 0 0 1 36.054 4.474 11.32 11.32 0 0 1 7.8 2.654 11.744 11.744 0 0 1-7.605 20.601zM14.645 27.6a9.3 9.3 0 0 0-6.066 2.224 10.3 10.3 0 0 0-3.678 7.77 9.98 9.98 0 0 0 9.935 9.965h36.93a7.753 7.753 0 0 0 7.742-7.744 7.92 7.92 0 0 0-2.66-5.988 8.1 8.1 0 0 0-3.193-1.548c-1.166-.273-2.435-.615-4.386-.127l-1.422-1.774a14.905 14.905 0 0 0-29.143-3.96l-.506 1.645-1.693-.299a11 11 0 0 0-1.86-.164"/></svg>
